_inc/systems/logos/auto-asiaticboard.svg

<?xml version="1.0" encoding="utf-8"?>
<svg version="1.1" id="asiatic" x="0px" y="0px" viewBox="0 0 200 40" xmlns="http://www.w3.org/2000/svg">
  <path d="M 24.928 11.243 C 25.345 11.243 25.63 11.243 25.921 11.243 C 30.314 11.243 34.706 11.296 39.099 11.217 C 41.157 11.177 42.956 12.752 42.922 15.007 C 42.816 22.178 42.844 29.349 42.916 36.514 C 42.935 38.22 41.388 40.013 39.456 40 C 34.482 39.967 29.507 39.994 24.532 39.987 C 22.475 39.98 20.999 38.505 20.986 36.421 C 20.967 34.199 20.98 31.975 20.98 29.753 C 20.98 29.462 20.98 29.177 20.98 28.78 C 20.06 28.78 19.193 28.78 18.326 28.78 C 18.036 28.78 17.698 28.867 17.467 28.748 C 17.162 28.588 16.779 28.304 16.719 28.013 C 16.62 27.53 17.01 27.252 17.506 27.245 C 18.38 27.232 19.252 27.239 20.126 27.239 C 20.384 27.239 20.642 27.219 20.986 27.206 C 20.986 26.868 20.986 26.591 20.986 26.306 C 20.986 22.549 20.999 18.791 20.98 15.034 C 20.973 13.486 21.594 12.348 22.957 11.587 C 23.156 11.474 23.348 11.157 23.348 10.939 C 23.374 8.478 23.381 6.017 23.355 3.556 C 23.341 2.398 22.554 1.598 21.402 1.591 C 16.427 1.571 11.454 1.578 6.479 1.591 C 5.393 1.598 4.646 2.332 4.52 3.404 C 4.507 3.51 4.507 3.616 4.507 3.721 C 4.507 10.84 4.5 17.957 4.513 25.069 C 4.513 26.458 5.287 27.212 6.691 27.239 C 7.855 27.259 9.019 27.245 10.183 27.239 C 10.719 27.239 11.169 27.391 11.182 28 C 11.195 28.608 10.758 28.794 10.216 28.787 C 8.945 28.78 7.676 28.78 6.406 28.78 C 4.368 28.78 2.979 26.895 2.999 25.248 C 3.078 18.024 3.078 10.799 2.999 3.583 C 2.979 1.981 4.236 0.043 6.386 0.03 C 11.413 -0.01 16.442 -0.01 21.462 0.03 C 23.474 0.043 24.902 1.591 24.915 3.622 C 24.936 5.845 24.922 8.067 24.922 10.291 C 24.928 10.575 24.928 10.859 24.928 11.243 Z M 22.547 25.625 C 22.547 29.144 22.547 32.663 22.547 36.176 C 22.547 37.698 23.268 38.432 24.763 38.432 C 29.58 38.439 34.389 38.439 39.204 38.432 C 40.647 38.432 41.395 37.678 41.395 36.216 C 41.401 29.151 41.401 22.092 41.395 15.027 C 41.395 13.538 40.64 12.804 39.132 12.804 C 34.369 12.798 29.613 12.798 24.85 12.804 C 23.249 12.804 22.554 13.512 22.554 15.14 C 22.547 18.646 22.547 22.138 22.547 25.625 Z" style="fill: rgb(221, 221, 221);"/>
  <path d="M 14.735 8.987 C 16.176 9.225 17.387 9.709 18.439 10.568 C 18.955 10.985 19.2 11.494 19.127 12.162 C 19.041 12.923 18.988 13.691 18.889 14.452 C 18.743 15.649 17.811 16.231 16.666 15.867 C 16.07 15.682 15.462 15.517 14.727 15.305 C 14.727 15.953 14.727 16.475 14.727 16.998 C 14.727 18.534 14.721 20.068 14.727 21.596 C 14.727 22.159 14.575 22.655 13.941 22.655 C 13.299 22.655 13.154 22.165 13.16 21.596 C 13.167 19.585 13.154 17.58 13.147 15.569 C 13.147 15.543 13.126 15.523 13.041 15.358 C 12.512 15.497 11.936 15.616 11.38 15.801 C 10.031 16.25 9.164 15.728 8.973 14.312 C 8.88 13.631 8.841 12.943 8.748 12.262 C 8.648 11.5 8.9 10.859 9.548 10.496 C 10.666 9.873 11.83 9.344 13.16 8.69 C 13.16 8.372 13.173 7.77 13.16 7.168 C 13.147 6.625 13.306 6.183 13.914 6.169 C 14.569 6.155 14.735 6.633 14.727 7.194 C 14.735 7.797 14.735 8.398 14.735 8.987 Z M 10.56 14.359 C 11.467 14.134 12.28 13.935 13.107 13.73 C 13.107 12.705 13.107 11.673 13.107 10.575 C 12.704 10.68 12.366 10.747 12.049 10.859 C 10.428 11.441 10.282 11.686 10.461 13.36 C 10.494 13.671 10.52 13.981 10.56 14.359 Z M 17.314 14.366 C 17.394 13.637 17.48 12.956 17.532 12.275 C 17.546 12.097 17.493 11.831 17.368 11.725 C 16.626 11.124 15.793 10.714 14.774 10.615 C 14.774 11.686 14.774 12.705 14.774 13.717 C 15.62 13.935 16.427 14.141 17.314 14.366 Z" style="fill: rgb(221, 221, 221);"/>
  <path d="M 13.881 26.914 C 14.278 27.405 14.675 27.688 14.668 27.954 C 14.662 28.231 14.298 28.648 14.013 28.734 C 13.55 28.867 13.154 28.536 13.206 28.039 C 13.239 27.722 13.55 27.437 13.881 26.914 Z" style="fill: rgb(221, 221, 221);"/>
  <path d="M 31.147 19.572 C 31.147 18.904 31.147 18.381 31.147 17.746 C 30.393 17.746 29.658 17.74 28.931 17.746 C 28.362 17.753 27.893 17.574 27.912 16.925 C 27.932 16.324 28.382 16.165 28.918 16.178 C 29.632 16.191 30.34 16.178 31.121 16.178 C 31.207 15.582 31.14 14.809 31.994 14.835 C 32.748 14.861 32.748 15.51 32.762 16.178 C 33.515 16.178 34.243 16.185 34.977 16.178 C 35.546 16.172 36.029 16.317 36.029 16.972 C 36.022 17.62 35.527 17.766 34.971 17.753 C 34.263 17.746 33.556 17.753 32.794 17.753 C 32.794 18.361 32.794 18.904 32.794 19.579 C 33.205 19.579 33.615 19.579 34.025 19.579 C 35.189 19.579 36.353 19.579 37.518 19.579 C 38.107 19.579 38.483 19.836 38.483 20.472 C 38.483 22.668 38.483 24.864 38.483 27.054 C 38.483 27.748 38.06 27.947 37.445 27.947 C 35.97 27.941 34.495 27.947 32.907 27.947 C 33.317 29.151 34.045 29.866 35.169 30.163 C 35.421 30.229 35.738 30.169 35.937 30.301 C 36.228 30.494 36.598 30.785 36.645 31.082 C 36.718 31.572 36.288 31.896 35.825 31.804 C 35.01 31.638 34.216 31.361 33.422 31.095 C 33.212 31.03 33.039 30.857 32.748 30.666 C 32.748 32.088 32.755 33.405 32.748 34.714 C 32.741 35.806 32.312 36.083 31.3 35.654 C 30.909 35.488 30.525 35.317 30.135 35.151 C 29.678 34.952 29.341 34.662 29.533 34.119 C 29.738 33.537 30.195 33.511 30.703 33.695 C 30.822 33.736 30.949 33.768 31.134 33.827 C 31.134 32.816 31.134 31.85 31.134 30.976 C 30.307 31.242 29.46 31.558 28.587 31.79 C 28.025 31.936 27.456 31.804 27.389 31.116 C 27.33 30.474 27.82 30.322 28.382 30.262 C 29.738 30.11 30.651 29.382 31.153 27.96 C 29.645 27.96 28.237 27.96 26.82 27.96 C 25.611 27.96 25.451 27.801 25.451 26.598 C 25.451 24.639 25.445 22.681 25.451 20.73 C 25.451 19.849 25.696 19.605 26.589 19.598 C 28.077 19.565 29.58 19.572 31.147 19.572 Z M 27.052 21.166 C 27.052 22.932 27.052 24.612 27.052 26.326 C 28.428 26.326 29.758 26.326 31.114 26.326 C 31.114 25.717 31.114 25.162 31.114 24.553 C 30.631 24.553 30.208 24.567 29.791 24.547 C 29.282 24.52 28.898 24.282 28.925 23.726 C 28.944 23.224 29.295 22.992 29.784 22.992 C 30.227 22.985 30.664 22.992 31.121 22.992 C 31.121 22.33 31.121 21.761 31.121 21.166 C 29.745 21.166 28.434 21.166 27.052 21.166 Z M 32.775 22.992 C 33.29 22.992 33.74 22.992 34.183 22.992 C 34.7 22.985 35.096 23.178 35.109 23.732 C 35.129 24.335 34.706 24.547 34.17 24.553 C 33.707 24.56 33.244 24.553 32.794 24.553 C 32.794 25.228 32.794 25.77 32.794 26.326 C 34.183 26.326 35.513 26.326 36.863 26.326 C 36.863 24.586 36.863 22.886 36.863 21.186 C 35.474 21.186 34.138 21.186 32.775 21.186 C 32.775 21.781 32.775 22.324 32.775 22.992 Z" style="fill: rgb(221, 221, 221);"/>
  <path d="M 54.63 21.2 L 48.63 21.2 L 56.52 2.45 L 65.34 2.45 L 66.66 21.2 L 60.63 21.2 L 60.51 18.23 L 55.8 18.23 Z M 59.76 8.21 L 57.66 13.46 L 60.06 13.46 L 60.06 8.21 Z M 68.1 20.87 L 69.78 15.92 C 71.46 16.38 73 16.61 74.4 16.61 C 75.8 16.61 76.93 16.55 77.79 16.43 L 78.03 14.93 L 75.54 14.69 C 73.64 14.51 72.295 14.08 71.505 13.4 C 70.715 12.72 70.32 11.76 70.32 10.52 C 70.32 9.98 70.38 9.38 70.5 8.72 C 70.96 6.16 71.795 4.4 73.005 3.44 C 74.215 2.48 76.09 2 78.63 2 C 81.17 2 83.41 2.25 85.35 2.75 L 83.79 7.55 C 82.05 7.25 80.65 7.1 79.59 7.1 C 78.53 7.1 77.63 7.15 76.89 7.25 L 76.65 8.72 L 78.66 8.93 C 80.7 9.15 82.15 9.635 83.01 10.385 C 83.87 11.135 84.3 12.14 84.3 13.4 C 84.3 14.68 84.02 16 83.46 17.36 C 83.18 18.06 82.875 18.645 82.545 19.115 C 82.215 19.585 81.795 19.985 81.285 20.315 C 80.775 20.645 80.31 20.895 79.89 21.065 C 79.47 21.235 78.94 21.36 78.3 21.44 C 77.36 21.58 76.21 21.65 74.85 21.65 C 72.37 21.65 70.12 21.39 68.1 20.87 Z M 85.649 21.2 L 88.949 2.45 L 94.649 2.45 L 91.349 21.2 Z M 99.149 21.2 L 93.149 21.2 L 101.039 2.45 L 109.859 2.45 L 111.179 21.2 L 105.149 21.2 L 105.029 18.23 L 100.319 18.23 Z M 104.279 8.21 L 102.179 13.46 L 104.579 13.46 L 104.579 8.21 Z M 127.139 7.25 L 122.999 7.25 L 120.569 21.2 L 114.869 21.2 L 117.299 7.25 L 113.189 7.25 L 114.059 2.45 L 128.009 2.45 Z M 126.869 21.2 L 130.169 2.45 L 135.869 2.45 L 132.569 21.2 Z M 149.009 15.83 L 148.529 20.87 C 147.249 21.39 145.629 21.65 143.669 21.65 C 141.149 21.65 139.344 21.16 138.254 20.18 C 137.164 19.2 136.619 17.69 136.619 15.65 C 136.619 14.79 136.759 13.52 137.039 11.84 C 137.639 8.4 138.674 5.9 140.144 4.34 C 141.614 2.78 143.939 2 147.119 2 C 147.859 2 148.704 2.075 149.654 2.225 C 150.604 2.375 151.299 2.56 151.739 2.78 L 150.059 7.37 C 148.879 7.09 147.774 6.95 146.744 6.95 C 145.714 6.95 144.979 7.05 144.539 7.25 C 144.099 7.45 143.829 7.85 143.729 8.45 L 142.349 16.31 C 143.069 16.47 143.809 16.55 144.569 16.55 C 146.189 16.55 147.669 16.31 149.009 15.83 Z" style="white-space: pre; fill: rgb(255, 255, 255);"/>
  <path d="M 45.72 38.216 L 48.339 23.335 L 55.672 23.335 C 56.815 23.335 57.644 23.534 58.16 23.93 C 58.676 24.327 58.934 24.938 58.934 25.764 C 58.934 26.97 58.668 27.962 58.137 28.74 C 57.605 29.518 56.958 30.002 56.196 30.192 L 56.172 30.335 C 57.601 30.605 58.315 31.549 58.315 33.168 C 58.315 34.597 57.926 35.795 57.148 36.764 C 56.371 37.732 55.275 38.216 53.863 38.216 Z M 53.053 32.287 L 51.268 32.287 L 50.839 34.716 L 52.601 34.716 C 52.998 34.716 53.299 34.557 53.506 34.24 C 53.712 33.922 53.815 33.518 53.815 33.026 C 53.815 32.533 53.561 32.287 53.053 32.287 Z M 53.72 26.597 L 52.291 26.597 L 51.887 28.811 L 53.291 28.811 C 54.022 28.811 54.387 28.295 54.387 27.264 C 54.387 26.819 54.164 26.597 53.72 26.597 Z M 65.41 28.311 L 64.315 34.502 L 66.196 34.502 C 66.815 34.502 67.275 34.426 67.577 34.276 C 67.878 34.125 68.077 33.779 68.172 33.24 L 69.267 27.049 L 67.363 27.049 C 66.759 27.049 66.307 27.125 66.006 27.276 C 65.704 27.426 65.506 27.772 65.41 28.311 Z M 68.148 22.978 C 70.164 22.978 71.601 23.371 72.458 24.157 C 73.315 24.942 73.744 26.153 73.744 27.787 C 73.744 29.422 73.486 31.133 72.97 32.918 C 72.454 34.704 71.636 36.093 70.517 37.085 C 69.398 38.077 67.763 38.573 65.613 38.573 C 63.462 38.573 61.958 38.18 61.101 37.395 C 60.244 36.609 59.815 35.399 59.815 33.764 C 59.815 32.986 59.926 31.958 60.148 30.68 C 60.371 29.403 60.664 28.299 61.029 27.371 C 61.394 26.442 61.886 25.637 62.506 24.954 C 63.696 23.637 65.577 22.978 68.148 22.978 Z M 77.862 38.216 L 73.1 38.216 L 79.362 23.335 L 86.362 23.335 L 87.409 38.216 L 82.624 38.216 L 82.528 35.859 L 78.79 35.859 Z M 81.933 27.907 L 80.266 32.073 L 82.171 32.073 L 82.171 27.907 Z M 101.314 38.216 L 96.338 38.216 L 95.242 33.787 L 94.266 33.787 L 93.504 38.216 L 88.981 38.216 L 91.6 23.335 L 98.742 23.335 C 101.457 23.335 102.814 24.549 102.814 26.978 C 102.814 27.978 102.663 28.93 102.361 29.835 C 101.806 31.549 100.933 32.692 99.742 33.264 Z M 95.433 27.145 L 94.909 30.121 L 95.957 30.121 C 96.496 30.121 96.905 30.061 97.183 29.942 C 97.461 29.823 97.651 29.482 97.754 28.918 C 97.858 28.355 97.909 28.01 97.909 27.883 C 97.909 27.565 97.786 27.363 97.54 27.276 C 97.294 27.188 96.893 27.145 96.338 27.145 Z M 103.242 38.216 L 105.861 23.335 L 112.195 23.335 C 114.242 23.335 115.699 23.696 116.564 24.418 C 117.429 25.141 117.861 26.311 117.861 27.93 C 117.861 28.756 117.766 29.708 117.576 30.787 C 117.099 33.454 116.286 35.359 115.135 36.502 C 113.984 37.645 112.131 38.216 109.576 38.216 Z M 111.576 27.145 L 109.695 27.145 L 108.433 34.406 L 110.314 34.406 C 110.933 34.406 111.393 34.331 111.695 34.18 C 111.996 34.029 112.195 33.684 112.29 33.145 L 113.123 28.407 C 113.139 28.311 113.147 28.184 113.147 28.026 C 113.147 27.66 113.02 27.422 112.766 27.311 C 112.512 27.2 112.115 27.145 111.576 27.145 Z M 131.456 33.835 L 131.575 33.192 L 130.432 33.192 L 131.075 29.549 L 136.527 29.549 L 135.122 37.502 C 133.186 38.216 131.241 38.573 129.289 38.573 C 127.337 38.573 125.928 38.184 125.063 37.406 C 124.198 36.629 123.765 35.43 123.765 33.811 C 123.765 33.129 123.876 32.121 124.099 30.787 C 124.575 28.026 125.416 26.034 126.622 24.811 C 127.829 23.589 129.829 22.978 132.622 22.978 C 133.21 22.978 133.96 23.041 134.872 23.168 C 135.785 23.295 136.456 23.438 136.884 23.597 L 135.575 27.24 C 134.384 27.018 133.293 26.907 132.301 26.907 C 131.309 26.907 130.598 26.986 130.17 27.145 C 129.741 27.303 129.487 27.621 129.408 28.097 L 128.241 34.835 L 129.741 34.835 C 130.281 34.835 130.682 34.775 130.944 34.656 C 131.206 34.537 131.376 34.264 131.456 33.835 Z M 140.694 38.216 L 135.932 38.216 L 142.194 23.335 L 149.194 23.335 L 150.241 38.216 L 145.455 38.216 L 145.36 35.859 L 141.622 35.859 Z M 144.765 27.907 L 143.098 32.073 L 145.003 32.073 L 145.003 27.907 Z M 156.098 38.216 L 151.384 38.216 L 154.86 23.335 L 160.765 23.335 L 161.193 30.906 L 161.36 30.906 L 164.455 23.335 L 170.36 23.335 L 168.598 38.216 L 163.86 38.216 L 164.86 31.002 L 164.693 31.002 L 161.717 38.216 L 158.265 38.216 L 157.765 31.002 L 157.646 31.002 Z M 181.145 32.597 L 176.621 32.597 L 176.311 34.406 L 181.859 34.406 L 181.192 38.216 L 171.121 38.216 L 173.74 23.335 L 183.692 23.335 L 182.454 27.145 L 177.573 27.145 L 177.24 29.145 L 181.764 29.145 Z M 183.311 37.954 L 184.645 34.026 C 185.978 34.391 187.2 34.573 188.311 34.573 C 189.422 34.573 190.319 34.525 191.002 34.43 L 191.192 33.24 L 189.216 33.049 C 187.708 32.906 186.641 32.565 186.014 32.026 C 185.387 31.486 185.073 30.724 185.073 29.74 C 185.073 29.311 185.121 28.835 185.216 28.311 C 185.581 26.28 186.244 24.883 187.204 24.121 C 188.165 23.359 189.653 22.978 191.668 22.978 C 193.684 22.978 195.462 23.176 197.002 23.573 L 195.764 27.383 C 194.383 27.145 193.272 27.026 192.43 27.026 C 191.589 27.026 190.875 27.065 190.288 27.145 L 190.097 28.311 L 191.692 28.478 C 193.311 28.653 194.462 29.037 195.145 29.633 C 195.827 30.228 196.168 31.026 196.168 32.026 C 196.168 33.041 195.946 34.089 195.502 35.168 C 195.28 35.724 195.037 36.188 194.776 36.561 C 194.514 36.934 194.18 37.252 193.776 37.514 C 193.371 37.775 193.002 37.974 192.668 38.109 C 192.335 38.244 191.914 38.343 191.407 38.406 C 190.661 38.518 189.748 38.573 188.669 38.573 C 186.7 38.573 184.915 38.367 183.311 37.954 Z" style="white-space: pre; fill: rgb(255, 255, 255);"/>
</svg>

<svg xmlns="http://www.w3.org/2000/svg" viewBox="0 0 200 40"><path d="M24.93 11.24h1c4.38 0 8.78.06 13.17-.02A3.7 3.7 0 0 1 42.92 15q-.13 10.76 0 21.5a3.6 3.6 0 0 1-3.46 3.5c-4.98-.03-9.95 0-14.93-.01A3.44 3.44 0 0 1 21 36.42q-.02-3.33-.01-6.67v-.97h-2.65c-.3 0-.63.09-.86-.03-.3-.16-.7-.45-.75-.74-.1-.48.29-.76.79-.77h2.62l.86-.03v-.9l-.01-11.28c0-1.54.61-2.68 1.98-3.44a1 1 0 0 0 .39-.65q.04-3.69 0-7.38c0-1.16-.8-1.96-1.95-1.97q-7.46-.02-14.92 0c-1.09 0-1.83.74-1.96 1.81l-.01.32v21.35c0 1.39.78 2.14 2.18 2.17h3.5c.53 0 .98.15 1 .76 0 .6-.43.8-.97.79l-3.81-.01c-2.04 0-3.43-1.89-3.41-3.53Q3.12 14.4 3 3.58C2.98 1.98 4.24.04 6.39.03q7.53-.06 15.07 0c2.01.01 3.44 1.56 3.45 3.6q.03 3.33.01 6.66zm-2.38 14.39v10.55q-.01 2.27 2.21 2.25H39.2q2.19-.01 2.2-2.21v-21.2q0-2.22-2.27-2.22H24.85c-1.6 0-2.3.71-2.3 2.34z" style="fill:#ddd"/><path d="M14.74 8.99a7.6 7.6 0 0 1 3.7 1.58q.78.6.69 1.6c-.09.75-.14 1.52-.24 2.28-.15 1.2-1.08 1.78-2.22 1.42-.6-.19-1.2-.35-1.94-.56v6.29c0 .56-.16 1.05-.79 1.05-.64 0-.79-.48-.78-1.05l-.01-6.03c0-.03-.02-.05-.1-.21-.54.14-1.11.26-1.67.44-1.35.45-2.22-.07-2.4-1.49-.1-.68-.14-1.37-.23-2.05-.1-.76.15-1.4.8-1.76 1.12-.63 2.28-1.16 3.61-1.81V7.17c-.01-.54.15-.99.75-1 .66-.01.82.46.82 1.02zm-4.18 5.37 2.55-.63v-3.16q-.59.14-1.06.29c-1.62.58-1.77.83-1.59 2.5zm6.75 0q.13-1.07.22-2.08c.02-.18-.04-.45-.16-.55a5 5 0 0 0-2.6-1.12v3.1zm-3.43 12.55c.4.5.8.78.79 1.04 0 .28-.37.7-.66.78-.46.14-.86-.2-.8-.7.03-.3.34-.6.67-1.12m17.27-7.34v-1.82h-2.22c-.57 0-1.04-.18-1.02-.82.02-.6.47-.77 1-.75h2.21c.09-.6.02-1.37.87-1.34.76.02.76.67.77 1.34h2.22c.57 0 1.05.14 1.05.8 0 .64-.5.79-1.06.77H32.8v1.83h4.73c.59 0 .96.26.96.9v6.57c0 .7-.42.9-1.03.9H32.9q.59 1.79 2.26 2.21c.25.07.57 0 .77.14.29.2.66.48.7.78.08.5-.35.82-.81.72-.82-.16-1.61-.44-2.4-.7-.22-.07-.4-.24-.68-.43v4.04c0 1.1-.44 1.37-1.45.94q-.6-.24-1.16-.5c-.46-.2-.8-.49-.6-1.03.2-.58.66-.6 1.16-.42l.43.13v-2.85c-.82.26-1.67.58-2.54.81-.57.15-1.13.01-1.2-.67-.06-.65.43-.8 1-.86 1.35-.15 2.26-.88 2.76-2.3h-4.33c-1.2 0-1.37-.16-1.37-1.36v-5.87c0-.88.25-1.12 1.14-1.13q2.22-.05 4.56-.03m-4.1 1.6v5.16h4.06v-1.78q-.7.02-1.32 0c-.5-.03-.9-.27-.86-.82.01-.5.37-.74.85-.74h1.34v-1.82zm5.72 1.82h1.41c.52 0 .92.19.93.74.02.6-.4.82-.94.82h-1.38v1.78h4.07v-5.14h-4.09z" style="fill:#ddd"/><path d="M54.63 21.2h-6l7.89-18.75h8.82l1.32 18.75h-6.03l-.12-2.97H55.8Zm5.13-12.99-2.1 5.25h2.4V8.21Zm8.34 12.66 1.68-4.95q2.52.69 4.62.69t3.39-.18l.24-1.5-2.49-.24q-2.85-.27-4.04-1.29a3.6 3.6 0 0 1-1.18-2.88q0-.81.18-1.8.7-3.84 2.5-5.28Q74.83 2 78.63 2q3.81 0 6.72.75l-1.56 4.8q-2.61-.45-4.2-.45t-2.7.15l-.24 1.47 2.01.21q3.06.32 4.35 1.46a3.8 3.8 0 0 1 1.29 3.01q0 1.92-.84 3.96-.42 1.05-.91 1.75-.5.72-1.27 1.2-.75.5-1.39.76-.63.24-1.59.37-1.41.21-3.45.21-3.72 0-6.75-.78m17.55.33 3.3-18.75h5.7l-3.3 18.75Zm13.5 0h-6l7.89-18.75h8.82l1.32 18.75h-6.03l-.12-2.97h-4.71Zm5.13-12.99-2.1 5.25h2.4V8.21Zm22.86-.96H123l-2.43 13.95h-5.7l2.43-13.95h-4.11l.87-4.8H128Zm-.27 13.95 3.3-18.75h5.7l-3.3 18.75ZM149 15.83l-.48 5.04q-1.92.78-4.86.78-3.78 0-5.42-1.47-1.63-1.47-1.63-4.53 0-1.29.42-3.81.9-5.16 3.1-7.5T147.12 2q1.1 0 2.53.23 1.43.22 2.09.55l-1.68 4.59a14 14 0 0 0-3.32-.42q-1.54 0-2.2.3t-.81 1.2l-1.38 7.86q1.08.24 2.22.24 2.43 0 4.44-.72M45.72 38.22l2.62-14.88h7.33q1.71 0 2.49.59.77.6.77 1.83 0 1.81-.8 2.98a3.3 3.3 0 0 1-1.93 1.45l-.03.14q2.14.41 2.14 2.84 0 2.15-1.16 3.6a4 4 0 0 1-3.29 1.45Zm7.33-5.93h-1.78l-.43 2.43h1.76q.6 0 .9-.48t.31-1.21q0-.75-.76-.74m.67-5.7h-1.43l-.4 2.22h1.4q1.1 0 1.1-1.55 0-.66-.67-.66m11.69 1.72-1.1 6.2h1.89q.92 0 1.38-.23t.6-1.04l1.09-6.2h-1.9q-.91 0-1.36.24t-.6 1.03m2.74-5.33q3.02 0 4.3 1.18 1.3 1.18 1.3 3.63t-.78 5.13a8.6 8.6 0 0 1-2.45 4.16q-1.69 1.5-4.9 1.5-3.23 0-4.52-1.18-1.29-1.19-1.29-3.64 0-1.16.34-3.08.33-1.92.88-3.3a8 8 0 0 1 1.48-2.43q1.78-1.97 5.64-1.97m9.71 15.24H73.1l6.26-14.88h7l1.05 14.88h-4.79l-.1-2.36H78.8Zm4.07-10.31-1.66 4.16h1.9v-4.16Zm19.38 10.3h-4.97l-1.1-4.42h-.97l-.77 4.43h-4.52l2.62-14.88h7.14q4.08-.01 4.07 3.64 0 1.5-.45 2.86-.83 2.56-2.62 3.42Zm-5.88-11.07-.52 2.98h1.05q.81 0 1.22-.18.42-.18.57-1.02.16-.85.16-1.04 0-.47-.37-.6a4 4 0 0 0-1.2-.14Zm7.81 11.08 2.62-14.88h6.33q3.07 0 4.37 1.08 1.3 1.09 1.3 3.51 0 1.24-.28 2.86-.73 4-2.44 5.71-1.73 1.72-5.56 1.72Zm8.34-11.07h-1.89l-1.26 7.26h1.88q.93 0 1.38-.23t.6-1.03l.83-4.74q.03-.15.03-.38 0-.55-.38-.72a3 3 0 0 0-1.2-.16m19.88 6.69.11-.65h-1.14l.64-3.64h5.46l-1.4 7.95a17 17 0 0 1-5.84 1.07q-2.92 0-4.23-1.16-1.3-1.17-1.3-3.6 0-1.02.34-3.02.72-4.14 2.52-5.98 1.8-1.83 6-1.83a17 17 0 0 1 4.26.62l-1.3 3.64q-1.8-.33-3.28-.33-1.5 0-2.13.23-.64.24-.76.96l-1.17 6.74h1.5q.81 0 1.2-.18.4-.18.52-.82m9.23 4.38h-4.76l6.26-14.88h7l1.05 14.88h-4.78l-.1-2.36h-3.74Zm4.07-10.31-1.66 4.16h1.9v-4.16Zm11.34 10.3h-4.72l3.48-14.87h5.9l.43 7.57h.17l3.1-7.57h5.9l-1.76 14.88h-4.74l1-7.22h-.17l-2.97 7.22h-3.46l-.5-7.22h-.11Zm25.05-5.61h-4.53l-.3 1.8h5.54l-.67 3.82h-10.07l2.62-14.88h9.95l-1.24 3.8h-4.88l-.33 2h4.52Zm2.16 5.35 1.34-3.92q2 .54 3.66.54t2.7-.14l.18-1.19-1.97-.2q-2.27-.2-3.2-1.01a2.9 2.9 0 0 1-.95-2.29q0-.64.15-1.43.54-3.05 1.98-4.19 1.45-1.14 4.47-1.14t5.33.6l-1.24 3.8q-2.07-.35-3.33-.35t-2.14.11l-.2 1.17 1.6.17q2.43.26 3.46 1.15 1.02.9 1.02 2.4 0 1.52-.67 3.14a7 7 0 0 1-.72 1.4q-.4.55-1 .94-.6.4-1.11.6-.5.2-1.26.3-1.12.15-2.74.16-2.95 0-5.36-.62" style="white-space:pre;fill:#fff"/></svg>
